app/assets/images/heroicons/solid/view-columns.svg

<svg width="24" height="24" viewBox="0 0 24 24" fill="none" xmlns="http://www.w3.org/2000/svg">
<path d="M15 3.75H9V20.25H15V3.75Z" fill="#0F172A"/>
<path d="M16.5 20.25H19.875C20.9105 20.25 21.75 19.4105 21.75 18.375V5.625C21.75 4.58947 20.9105 3.75 19.875 3.75H16.5V20.25Z" fill="#0F172A"/>
<path d="M4.125 3.75H7.5V20.25H4.125C3.08947 20.25 2.25 19.4105 2.25 18.375V5.625C2.25 4.58947 3.08947 3.75 4.125 3.75Z" fill="#0F172A"/>
</svg>

<svg xmlns="http://www.w3.org/2000/svg" viewBox="0 0 24 24" fill="currentColor" aria-hidden="true" data-slot="icon">
  <path d="M15 3.75H9v16.5h6V3.75ZM16.5 20.25h3.375c1.035 0 1.875-.84 1.875-1.875V5.625c0-1.036-.84-1.875-1.875-1.875H16.5v16.5ZM4.125 3.75H7.5v16.5H4.125a1.875 1.875 0 0 1-1.875-1.875V5.625c0-1.036.84-1.875 1.875-1.875Z"/>
</svg>
